X:1
T:Civitas Dei, 76.86 D
T:Civitas Dei, 76.86 D
T:Alfred James Caldicott (1842-1897)
T:Public Domain Courtesy of the Cyber Hymnal™
C:Alfred James Caldicott (1842-1897)
Z:Public Domain
Z:Courtesy of the Cyber Hymnal™
%%score ( 1 2 ) ( 3 4 )
L:1/8
Q:1/4=115
M:4/4
K:F
V:1 treble 
V:2 treble 
V:3 bass 
V:4 bass 
V:1
 C2 | [B,D]2 [CF]2 [FB]3 [FA] | [EA]2 [EG]4 [EA]2 | [DF]3 [DE] [DF]2 [DG]2 | [CE]6 [CF]2 | %5
 [CG]2 [FA]2 [_Ed]3 [Ec] | [_Ec]2 [DB]2 [DB]2 [CA]2 | [B,G]2 [CD]2 [B,D]2 [=B,A]2 | [CG]6 [DG]2 | %9
 [^CA]3 [CE] [CE]2 [EA]2 | [EG]2 [DF]4 [FA]2 | [Ec]3 [EG] [EG]2 [GB]2 | [FA]6 [Fc]2 | %13
 [Ee]3 [EB] [EB]2 [Ed]2 | [Fd]3 [Fc] [Fc]2 [^CF]2 | [DF]2 [FB]2 [EG]3 F | F6 |] %17
V:2
 C2 | x8 | x8 | x8 | x8 | x8 | x8 | x8 | x8 | x8 | x8 | x8 | x8 | x8 | x8 | x7 F | F6 |] %17
V:3
 [F,A,]2 | [F,B,]2 [F,A,]2 [F,D]3 [F,C] | [C,C]2 [C,B,]4 [C,C]2 | [D,A,]3 [D,G,] [D,A,]2 [G,,B,]2 | %4
 [C,G,]6 [F,A,]2 | [F,B,]2 [F,C]2 [F,A,]3 [F,A,] | [F,A,]2 [B,,B,]2 [B,,F,]2 [D,^F,]2 | %7
 G,2 [G,A,]2 G,2 [G,,F,]2 | [C,E,]6 [_B,,E,]2 | [A,,E,]3 [A,,E,] [A,,A,]2 [^C,A,]2 | %10
 [D,B,]2 [D,A,]4 [D,F,]2 | [C,G,]3 [C,G,] [C,C]2 [E,C]2 | [F,C]6 [F,A,]2 | %13
 [G,B,]3 [G,B,] [G,B,]2 [G,B,]2 | [^G,=B,]3 [A,C] [A,C]2 [A,,A,]2 | %15
 [D,A,]2 [G,,D]2 [C,B,]3 [F,A,] | [F,A,]6 |] %17
V:4
 x2 | x8 | x8 | x8 | x8 | x8 | x8 | G,2 G,2 x4 | x8 | x8 | x8 | x8 | x8 | x8 | x8 | x8 | x6 |] %17

